svgs/sharp-light/ditto.svg

<svg xmlns="http://www.w3.org/2000/svg" viewBox="0 0 320 512"><!--! Font Awesome Pro 6.6.0 by @fontawesome - https://fontawesome.com License - https://fontawesome.com/license (Commercial License) Copyright 2024 Fonticons, Inc. --><path d="M58.9 256L32 101.2 32 64l64 0 0 37.2L69.1 256l-10.2 0zM128 32L96 32 32 32 0 32 0 64l0 40L32 288l64 0 32-184 0-40 0-32zM250.9 256L224 101.2 224 64l64 0 0 37.2L261.1 256l-10.2 0zM320 32l-32 0-64 0-32 0 0 32 0 40 32 184 64 0 32-184 0-40 0-32z"/></svg>

<svg xmlns="http://www.w3.org/2000/svg" viewBox="0 0 320 512"><!--! Font Awesome Pro 6.5.2 by @fontawesome - https://fontawesome.com License - https://fontawesome.com/license (Commercial License) Copyright 2024 Fonticons, Inc. --><path d="M58.9 256L32 101.2V64H96v37.2L69.1 256H58.9zM128 32H96 32 0V64v40L32 288H96l32-184V64 32zM250.9 256L224 101.2V64h64v37.2L261.1 256H250.9zM320 32H288 224 192V64v40l32 184h64l32-184V64 32z"/></svg>
